docs/images/info-alt/freeze.svg

<svg xmlns="http://www.w3.org/2000/svg" width="614" height="723" fill="none"><path fill="#323E48" d="M175.371 684.171c2.005-8.129 2.989-17.971 2.989-29.49s-1.02-21.288-2.989-29.38c-2.004-8.093-5.322-14.691-9.988-19.83-4.665-5.14-10.862-8.858-18.627-11.191q-11.591-3.5-28.87-3.5H60.474v128.13h57.412c11.519 0 21.143-1.203 28.87-3.573 7.728-2.405 13.962-6.16 18.627-11.263 4.666-5.14 7.984-11.738 9.988-19.903m-40.935-8.967c0 4.666-1.24 7.655-3.682 8.967s-6.525 1.968-12.212 1.968h-17.096v-62.515h17.096c5.687 0 9.77.656 12.212 1.968s3.682 4.302 3.682 8.967zm122.843-23.075-2.405-38.785c-12.066 2.151-22.2 6.999-30.402 14.508l-11.263-11.446h-20.486V718.91h41.008v-58.615c1.021-1.24 2.515-2.37 4.447-3.317 1.932-.985 4.047-1.787 6.416-2.479 2.333-.693 4.666-1.24 6.926-1.713s4.228-.693 5.796-.693zM41.009 481.606h34.848v-30.583H41.009v-17.242h37.91l5.14-32.807H0v128.129h41.009zm75.857-55.006H96.379v102.503h41.009v-58.615c1.021-1.239 2.515-2.369 4.447-3.317 1.932-.984 4.047-1.786 6.38-2.479 2.332-.692 4.665-1.239 6.925-1.713 2.26-.437 4.229-.693 5.796-.693l-2.406-38.785c-12.065 2.151-22.199 6.999-30.401 14.508l-11.263-11.446zm380.123 0H403.89l3.062 30.765h32.442l.511 1.203-40.134 50.049v20.486h98.421v-30.765h-40.134l-.693-1.203 39.624-50.049zM273.865 611.048c2.041 1.093 4.447 1.713 7.254 1.968 2.807.219 5.832.328 9.15.328 4.556 0 8.274-.255 11.19-.765 2.917-.511 5.213-1.422 6.926-2.734s2.917-2.989 3.573-5.067c.692-2.041 1.02-4.629 1.02-7.691s-.328-5.65-1.02-7.765c-.693-2.114-1.896-3.827-3.573-5.14-1.713-1.312-4.009-2.26-6.926-2.843s-6.634-.838-11.19-.838c-4.557 0-8.311.291-11.264.838q-4.43.875-6.999 2.843c-1.713 1.313-2.916 3.026-3.572 5.14-.693 2.115-1.021 4.703-1.021 7.765 0 3.864.583 6.889 1.713 9.04s2.734 3.791 4.776 4.884zm140.268-365.761-76.294-76.295h37.728l44.362 54.132 21.397-17.534-30-36.634h48.263v-27.704h-48.226l29.963-36.561-21.397-17.57-44.362 54.131h-37.692l76.258-76.258-19.575-19.575-76.258 76.258V84.022l54.168-44.399-17.57-21.397-36.598 30V0h-27.703v48.263l-36.562-30-17.57 21.397 54.168 44.399v37.691l-76.294-76.294-19.575 19.575 76.258 76.258h-37.655l-44.399-54.132-21.397 17.57 29.963 36.562h-48.226v27.703h48.226l-30 36.635 21.398 17.533 44.362-54.131h37.691l-76.294 76.294 19.575 19.575 76.294-76.294v37.691l-54.131 44.362 17.533 21.398 36.635-30v48.262H318.3v-48.262l36.635 30 17.533-21.398-54.131-44.362V188.64l76.258 76.258 19.575-19.575zM242.079 492.323c7.728-1.312 13.961-3.354 18.627-6.087 4.666-2.734 7.983-6.234 9.988-10.499s2.989-9.368 2.989-15.31c0-7.181-.839-13.122-2.479-17.825-1.64-4.739-4.447-8.493-8.384-11.263-3.937-2.807-9.076-4.776-15.456-5.979-6.379-1.202-14.362-1.786-23.912-1.786-19.028 0-32.844 4.484-41.446 13.415q-12.904 13.396-12.904 40.899c0 18.335 4.265 31.969 12.794 40.936 8.53 8.931 22.382 13.414 41.519 13.414 14.909 0 30.073-2.041 45.456-6.16l-4.775-30.073c-12.977 4.082-25.845 6.16-38.603 6.16-2.041 0-4.083-.073-6.16-.182s-4.083-.292-6.161-.51v-7.181q17.279 0 28.87-1.969zm-28.87-30.182c0-3.755 1.093-6.161 3.317-7.181 2.223-1.021 5.832-1.531 10.863-1.531h8.384v8.384c0 3.754-1.13 6.16-3.354 7.181q-3.335 1.53-10.826 1.531h-8.384zm144.715 30.182c7.728-1.312 13.961-3.354 18.627-6.087 4.666-2.734 7.983-6.234 9.988-10.499s2.989-9.368 2.989-15.31c0-7.181-.839-13.122-2.479-17.825-1.64-4.739-4.447-8.493-8.384-11.263-3.937-2.807-9.076-4.776-15.456-5.979-6.379-1.202-14.362-1.786-23.912-1.786-19.028 0-32.844 4.484-41.446 13.415q-12.904 13.396-12.904 40.899c0 18.335 4.265 31.969 12.794 40.936 8.53 8.931 22.382 13.414 41.519 13.414 14.909 0 30.073-2.041 45.456-6.16l-4.775-30.073c-12.977 4.082-25.845 6.16-38.603 6.16-2.041 0-4.083-.073-6.16-.182a121 121 0 0 1-6.161-.51v-7.181q17.279 0 28.87-1.969zm-28.87-30.182c0-3.755 1.093-6.161 3.317-7.181 2.223-1.021 5.832-1.531 10.863-1.531h8.384v8.384c0 3.754-1.13 6.16-3.354 7.181q-3.335 1.53-10.826 1.531h-8.384zm253.342 30.182c7.728-1.312 13.925-3.354 18.627-6.087 4.666-2.734 7.983-6.234 9.988-10.499s2.989-9.368 2.989-15.31c0-7.181-.838-13.122-2.478-17.825-1.641-4.739-4.448-8.493-8.384-11.263-3.937-2.807-9.077-4.776-15.456-5.979-6.379-1.202-14.362-1.786-23.913-1.786-19.028 0-32.843 4.484-41.446 13.415q-12.904 13.396-12.904 40.899c0 18.335 4.265 31.969 12.795 40.936 8.53 8.931 22.381 13.414 41.519 13.414 14.909 0 30.073-2.041 45.456-6.16l-4.776-30.073c-12.977 4.082-25.881 6.16-38.602 6.16-2.042 0-4.083-.073-6.161-.182a121 121 0 0 1-6.16-.51v-7.181c11.519 0 21.106-.657 28.87-1.969zm-28.87-30.182c0-3.755 1.094-6.161 3.317-7.181 2.224-1.021 5.833-1.531 10.863-1.531h8.384v8.384c0 3.754-1.13 6.16-3.354 7.181q-3.335 1.53-10.826 1.531h-8.384zM420.694 621.145c-3.936-2.807-9.076-4.775-15.455-5.978s-14.362-1.786-23.913-1.786c-19.028 0-32.843 4.483-41.446 13.414q-12.904 13.396-12.904 40.899c0 18.336 4.265 31.969 12.831 40.936 8.53 8.931 22.382 13.415 41.519 13.415 14.909 0 30.073-2.042 45.456-6.161l-4.775-30.073c-12.977 4.083-25.845 6.161-38.603 6.161a116 116 0 0 1-12.321-.693v-7.181q17.278 0 28.87-1.968c7.728-1.313 13.961-3.354 18.627-6.088s7.983-6.233 9.988-10.498 2.989-9.368 2.989-15.31c0-7.181-.838-13.123-2.479-17.825-1.64-4.739-4.447-8.494-8.384-11.264m-27.083 30.474c0 3.755-1.131 6.16-3.354 7.181q-3.335 1.531-10.826 1.531h-8.384v-8.384c0-3.754 1.093-6.16 3.317-7.181 2.223-1.021 5.832-1.531 10.863-1.531h8.384zM269.6 718.946h41.009V616.443l-41.009 5.14zm217.292 3.062c15.601 0 26.318-3.864 32.114-11.628l8.894 8.53h20.486V582.579l-41.008 3.062v30.765h-23.585c-7.764 0-14.253 1.422-19.465 4.192-5.249 2.807-9.478 6.525-12.649 11.191s-5.468 10.134-6.817 16.331c-1.385 6.197-2.041 12.721-2.041 19.538q0 10.772 2.296 20.668c1.531 6.598 4.047 12.394 7.51 17.352 3.463 4.957 8.019 8.894 13.596 11.847s12.467 4.447 20.669 4.447zm0-70.024c0-3.755 1.093-6.161 3.317-7.182 2.223-1.02 5.832-1.53 10.863-1.53h6.306v41.519c-.328 3.207-1.641 5.212-3.864 6.087-2.224.838-5.65 1.276-10.316 1.276h-6.306z"/></svg>

<svg width="614" height="723" viewBox="0 0 614 723" fill="none" xmlns="http://www.w3.org/2000/svg">
<path d="M175.371 684.171C177.376 676.042 178.36 666.2 178.36 654.681C178.36 643.162 177.34 633.393 175.371 625.301C173.367 617.208 170.049 610.61 165.383 605.471C160.718 600.331 154.521 596.613 146.756 594.28C139.029 591.947 129.405 590.78 117.886 590.78H60.4741V718.91H117.886C129.405 718.91 139.029 717.707 146.756 715.337C154.484 712.932 160.718 709.177 165.383 704.074C170.049 698.934 173.367 692.336 175.371 684.171ZM134.436 675.204C134.436 679.87 133.196 682.859 130.754 684.171C128.312 685.483 124.229 686.139 118.542 686.139H101.446V623.624H118.542C124.229 623.624 128.312 624.28 130.754 625.592C133.196 626.904 134.436 629.894 134.436 634.559V675.204ZM257.279 652.129L254.874 613.344C242.808 615.495 232.674 620.343 224.472 627.852L213.209 616.406H192.723V718.91H233.731V660.295C234.752 659.055 236.246 657.925 238.178 656.978C240.11 655.993 242.225 655.191 244.594 654.499C246.927 653.806 249.26 653.259 251.52 652.786C253.78 652.312 255.748 652.093 257.316 652.093L257.279 652.129ZM41.0087 481.606H75.857V451.023H41.0087V433.781H78.9189L84.0587 400.974H0V529.103H41.0087V481.606ZM116.866 426.6H96.3795V529.103H137.388V470.488C138.409 469.249 139.903 468.119 141.835 467.171C143.767 466.187 145.882 465.385 148.215 464.692C150.547 464 152.88 463.453 155.14 462.979C157.4 462.542 159.369 462.286 160.936 462.286L158.53 423.501C146.465 425.652 136.331 430.5 128.129 438.009L116.866 426.563V426.6ZM496.989 426.6H403.89L406.952 457.365H439.394L439.905 458.568L399.771 508.617V529.103H498.192V498.338H458.058L457.365 497.135L496.989 447.086V426.6ZM273.865 611.048C275.906 612.141 278.312 612.761 281.119 613.016C283.926 613.235 286.951 613.344 290.269 613.344C294.825 613.344 298.543 613.089 301.459 612.579C304.376 612.068 306.672 611.157 308.385 609.845C310.099 608.533 311.302 606.856 311.958 604.778C312.65 602.737 312.978 600.149 312.978 597.087C312.978 594.025 312.65 591.437 311.958 589.322C311.265 587.208 310.062 585.495 308.385 584.182C306.672 582.87 304.376 581.922 301.459 581.339C298.543 580.756 294.825 580.501 290.269 580.501C285.712 580.501 281.958 580.792 279.005 581.339C276.052 581.922 273.719 582.87 272.006 584.182C270.293 585.495 269.09 587.208 268.434 589.322C267.741 591.437 267.413 594.025 267.413 597.087C267.413 600.951 267.996 603.976 269.126 606.127C270.256 608.277 271.86 609.918 273.902 611.011L273.865 611.048ZM414.133 245.287L337.839 168.992H375.567L419.929 223.124L441.326 205.59L411.326 168.956H459.589V141.252H411.363L441.326 104.691L419.929 87.1207L375.567 141.252H337.875L414.133 64.9942L394.558 45.4194L318.3 121.677V84.0223L372.468 39.6235L354.898 18.2261L318.3 48.2262V0H290.597V48.2627L254.035 18.2625L236.465 39.66L290.633 84.0587V121.75L214.339 45.4559L194.764 65.0307L271.022 141.289H233.367L188.968 87.1572L167.571 104.727L197.534 141.289H149.308V168.992H197.534L167.534 205.627L188.932 223.16L233.294 169.029H270.985L194.691 245.323L214.266 264.898L290.56 188.604V226.295L236.429 270.657L253.962 292.055L290.597 262.055V310.317H318.3V262.055L354.935 292.055L372.468 270.657L318.337 226.295V188.64L394.595 264.898L414.17 245.323L414.133 245.287ZM242.079 492.323C249.807 491.011 256.04 488.969 260.706 486.236C265.372 483.502 268.689 480.002 270.694 475.737C272.699 471.472 273.683 466.369 273.683 460.427C273.683 453.246 272.844 447.305 271.204 442.602C269.564 437.863 266.757 434.109 262.82 431.339C258.883 428.532 253.744 426.563 247.364 425.36C240.985 424.158 233.002 423.574 223.452 423.574C204.424 423.574 190.608 428.058 182.006 436.989C173.403 445.919 169.102 459.553 169.102 477.888C169.102 496.223 173.367 509.857 181.896 518.824C190.426 527.755 204.278 532.238 223.415 532.238C238.324 532.238 253.488 530.197 268.871 526.078L264.096 496.005C251.119 500.087 238.251 502.165 225.493 502.165C223.452 502.165 221.41 502.092 219.333 501.983C217.255 501.874 215.25 501.691 213.172 501.473V494.292C224.691 494.292 234.315 493.635 242.042 492.323H242.079ZM213.209 462.141C213.209 458.386 214.302 455.98 216.526 454.96C218.749 453.939 222.358 453.429 227.389 453.429H235.773V461.813C235.773 465.567 234.643 467.973 232.419 468.994C230.195 470.014 226.587 470.525 221.593 470.525H213.209V462.141ZM357.924 492.323C365.652 491.011 371.885 488.969 376.551 486.236C381.217 483.502 384.534 480.002 386.539 475.737C388.544 471.472 389.528 466.369 389.528 460.427C389.528 453.246 388.689 447.305 387.049 442.602C385.409 437.863 382.602 434.109 378.665 431.339C374.728 428.532 369.589 426.563 363.209 425.36C356.83 424.158 348.847 423.574 339.297 423.574C320.269 423.574 306.453 428.058 297.851 436.989C289.248 445.919 284.947 459.553 284.947 477.888C284.947 496.223 289.212 509.857 297.741 518.824C306.271 527.755 320.123 532.238 339.26 532.238C354.169 532.238 369.333 530.197 384.716 526.078L379.941 496.005C366.964 500.087 354.096 502.165 341.338 502.165C339.297 502.165 337.255 502.092 335.178 501.983C333.136 501.874 331.095 501.691 329.017 501.473V494.292C340.536 494.292 350.16 493.635 357.887 492.323H357.924ZM329.054 462.141C329.054 458.386 330.147 455.98 332.371 454.96C334.594 453.939 338.203 453.429 343.234 453.429H351.618V461.813C351.618 465.567 350.488 467.973 348.264 468.994C346.04 470.014 342.432 470.525 337.438 470.525H329.054V462.141ZM582.396 492.323C590.124 491.011 596.321 488.969 601.023 486.236C605.689 483.502 609.006 480.002 611.011 475.737C613.016 471.472 614 466.369 614 460.427C614 453.246 613.162 447.305 611.522 442.602C609.881 437.863 607.074 434.109 603.138 431.339C599.201 428.532 594.061 426.563 587.682 425.36C581.303 424.158 573.32 423.574 563.769 423.574C544.741 423.574 530.926 428.058 522.323 436.989C513.72 445.919 509.419 459.553 509.419 477.888C509.419 496.223 513.684 509.857 522.214 518.824C530.744 527.755 544.595 532.238 563.733 532.238C578.642 532.238 593.806 530.197 609.189 526.078L604.413 496.005C591.436 500.087 578.532 502.165 565.811 502.165C563.769 502.165 561.728 502.092 559.65 501.983C557.609 501.874 555.568 501.691 553.49 501.473V494.292C565.009 494.292 574.596 493.635 582.36 492.323H582.396ZM553.526 462.141C553.526 458.386 554.62 455.98 556.843 454.96C559.067 453.939 562.676 453.429 567.706 453.429H576.09V461.813C576.09 465.567 574.96 467.973 572.736 468.994C570.513 470.014 566.904 470.525 561.91 470.525H553.526V462.141ZM420.694 621.145C416.758 618.338 411.618 616.37 405.239 615.167C398.86 613.964 390.877 613.381 381.326 613.381C362.298 613.381 348.483 617.864 339.88 626.795C331.277 635.726 326.976 649.359 326.976 667.694C326.976 686.03 331.241 699.663 339.807 708.63C348.337 717.561 362.189 722.045 381.326 722.045C396.235 722.045 411.399 720.003 426.782 715.884L422.007 685.811C409.03 689.894 396.162 691.972 383.404 691.972C381.363 691.972 379.321 691.899 377.243 691.789C375.202 691.68 373.124 691.498 371.083 691.279V684.098C382.602 684.098 392.225 683.442 399.953 682.13C407.681 680.817 413.914 678.776 418.58 676.042C423.246 673.308 426.563 669.809 428.568 665.544C430.573 661.279 431.557 656.176 431.557 650.234C431.557 643.053 430.719 637.111 429.078 632.409C427.438 627.67 424.631 623.915 420.694 621.145ZM393.611 651.619C393.611 655.374 392.48 657.779 390.257 658.8C388.033 659.821 384.425 660.331 379.431 660.331H371.047V651.947C371.047 648.193 372.14 645.787 374.364 644.766C376.587 643.745 380.196 643.235 385.227 643.235H393.611V651.619ZM269.6 718.946H310.609V616.443L269.6 621.583V718.946ZM486.892 722.008C502.493 722.008 513.21 718.144 519.006 710.38L527.9 718.91H548.386V582.579L507.378 585.641V616.406H483.793C476.029 616.406 469.54 617.828 464.328 620.598C459.079 623.405 454.85 627.123 451.679 631.789C448.508 636.455 446.211 641.923 444.862 648.12C443.477 654.317 442.821 660.841 442.821 667.658C442.821 674.839 443.586 681.729 445.117 688.326C446.648 694.924 449.164 700.72 452.627 705.678C456.09 710.635 460.646 714.572 466.223 717.525C471.8 720.477 478.69 721.972 486.892 721.972V722.008ZM486.892 651.984C486.892 648.229 487.985 645.823 490.209 644.802C492.432 643.782 496.041 643.272 501.072 643.272H507.378V684.791C507.05 687.998 505.737 690.003 503.514 690.878C501.29 691.716 497.864 692.154 493.198 692.154H486.892V652.02V651.984Z" fill="#323E48"/>
</svg>
